offer/images/tiny/click.svg

<svg height="45" viewBox="0 0 42 45" width="42" xmlns="http://www.w3.org/2000/svg"><g fill="none"><g fill="#828282"><path d="m3.79371639 2.99995418h1.50032048v1.49997718h-1.50032048z"/><path d="m6.79401396 2.99995418h1.49997717v1.49997718h-1.49997717z"/><path d="m9.79396822 2.99995418h1.49997708v1.49997718h-1.49997708z"/><path d="m37.5440598 31.4998627v-3.7497711c-.0027466-2.0702362-1.6802216-3.7477112-3.7501145-3.7501145h-2.9999542c-2.0702362.0024033-3.7477112 1.6798783-3.7501144 3.7501145v5.9999084c0 1.2424851-1.007309 2.2501373-2.2497941 2.2501373h-21.00036621c-1.24248498 0-2.24979399-1.0076522-2.24979399-2.2501373v-26.25011446h34.4998169v15.00011446h1.5003205v-18.74988554c-.0027466-2.07023625-1.6802216-3.7477112-3.7501145-3.75011446h-30.00022891c-2.06989286.00240326-3.7473678 1.67987821-3.74977108 3.75011446v29.99988554c.00240328 2.0702362 1.67987822 3.7477112 3.75011447 3.7501145h21.00002282c2.0698929-.0024033 3.7473679-1.6802216 3.7497712-3.7501145v-5.9999084c0-1.2428284 1.0076523-2.2501374 2.2501373-2.2501374h2.9999542c1.2428284 0 2.2501373 1.007309 2.2501373 2.2501374v3.7497711c-2.0702362.0027466-3.7477111 1.6802215-3.7501144 3.7501144v5.9999084c.0024033 2.0702363 1.6798782 3.7477112 3.7501144 3.7501145h1.4999772c2.0698928-.0024033 3.7473679-1.6798782 3.7501144-3.7501145v-5.9999084c-.0027465-2.0698929-1.6802216-3.7473678-3.7501144-3.7501144zm-33.75034341-29.99988561h30.00022891c1.2424851 0 2.249794 1.007309 2.249794 2.25013737v2.24979399h-34.4998169v-2.24979399c0-1.24282837 1.00730901-2.25013737 2.24979399-2.25013737zm36.00013741 33.75000001h-2.249794v-2.2501373c1.242485 0 2.249794 1.0076523 2.249794 2.2501373zm-3.7501145-2.2501373v2.2501373h-2.249794c0-1.242485 1.007309-2.2501373 2.249794-2.2501373zm1.5003205 10.5001831h-1.5003205c-1.242485 0-2.249794-1.007309-2.249794-2.2501374v-4.4999313h5.9999085v4.4999313c0 1.2428284-1.007309 2.2501374-2.249794 2.2501374z"/></g><g fill="#a03ee5" stroke="#a03ee5" transform="translate(11.337891 12.128906)"><path d="m8.56324305 6.52002783c-.17784165.17917776-.17784165.46653831 0 .64571607.73485511.74037603.73485511 1.94390967 0 2.68428569l-3.85882818 3.88781931c-.7348551.740376-1.92941409.740376-2.66426919 0l-.58050198-.5848632c-.7348551-.7403761-.7348551-1.9439097 0-2.6842857l3.85882818-3.88781935c.17784165-.17917776.17784165-.46653832 0-.64571608s-.46305938-.17917776-.64090103 0l-3.85882818 3.88781932c-.52681393.53077191-.81874267 1.23734081-.81874267 1.98785891 0 .7505182.28857324 1.4570871.81874267 1.9878589l.58050198.5848633c.54359145.5476754 1.25831354.8215131 1.97303563.8215131s1.42944417-.2738377 1.97303562-.8215131l3.85882818-3.8878193c1.08718292-1.09535086 1.08718292-2.88036704 0-3.97571787-.17448615-.17917777-.46305938-.17917777-.64090103 0z"/><path d="m15.4441053 1.40625-.5806965-.5848107c-1.0875471-1.0952524-2.8598461-1.0952524-3.9473932 0l-3.86012089 3.88746995c-1.08754711 1.09525241-1.08754711 2.88010818 0 3.97536058.17790122.17916166.46321451.17916166.64111573 0 .17790123-.17916166.17790123-.46649639 0-.64565805-.73510128-.7403095-.73510128-1.94373498 0-2.68404447l3.86012096-3.88746995c.7351012-.7403095 1.9300604-.7403095 2.6651617 0l.5806965.58481069c.7351012.7403095.7351012 1.94373498 0 2.68404447l-3.860121 3.88746996c-.1779012.17916165-.1779012.46649639 0 .64565805.0872723.08789062.2047543.13521635.3188796.13521635s.2316072-.04394532.3188795-.13521635l3.860121-3.88746995c.5269904-.53072416.8190169-1.23722957.8190169-1.98768029s-.2886699-1.45695613-.8156603-1.98768029z"/></g></g></svg>

<?xml version="1.0" encoding="UTF-8"?>
<svg width="42px" height="45px" viewBox="0 0 42 45" version="1.1" xmlns="http://www.w3.org/2000/svg" xmlns:xlink="http://www.w3.org/1999/xlink">
    <!-- Generator: Sketch 52.2 (67145) - http://www.bohemiancoding.com/sketch -->
    <title>pay-per-click</title>
    <desc>Created with Sketch.</desc>
    <g id="Page-1" stroke="none" stroke-width="1" fill="none" fill-rule="evenodd">
        <g id="home" transform="translate(-194.000000, -1530.000000)" fill-rule="nonzero">
            <g id="pay-per-click" transform="translate(194.000000, 1530.000000)">
                <polygon id="Shape" fill="#828282" points="3.79371639 2.99995418 5.29403687 2.99995418 5.29403687 4.49993136 3.79371639 4.49993136"></polygon>
                <polygon id="Shape" fill="#828282" points="6.79401396 2.99995418 8.29399113 2.99995418 8.29399113 4.49993136 6.79401396 4.49993136"></polygon>
                <polygon id="Shape" fill="#828282" points="9.79396822 2.99995418 11.2939453 2.99995418 11.2939453 4.49993136 9.79396822 4.49993136"></polygon>
                <path d="M37.5440598,31.4998627 L37.5440598,27.7500916 C37.5413132,25.6798554 35.8638382,24.0023804 33.7939453,23.9999771 L30.7939911,23.9999771 C28.7237549,24.0023804 27.0462799,25.6798554 27.0438767,27.7500916 L27.0438767,33.75 C27.0438767,34.9924851 26.0365677,36.0001373 24.7940826,36.0001373 L3.79371639,36.0001373 C2.55123141,36.0001373 1.5439224,34.9924851 1.5439224,33.75 L1.5439224,7.49988554 L36.0437393,7.49988554 L36.0437393,22.5 L37.5440598,22.5 L37.5440598,3.75011446 C37.5413132,1.67987821 35.8638382,0.00240326367 33.7939453,-2.84217094e-14 L3.79371639,-2.84217094e-14 C1.72382353,0.00240326367 0.0463485937,1.67987821 0.0439453125,3.75011446 L0.0439453125,33.75 C0.0463485938,35.8202362 1.72382353,37.4977112 3.79405978,37.5001145 L24.7940826,37.5001145 C26.8639755,37.4977112 28.5414505,35.8198929 28.5438538,33.75 L28.5438538,27.7500916 C28.5438538,26.5072632 29.5515061,25.4999542 30.7939911,25.4999542 L33.7939453,25.4999542 C35.0367737,25.4999542 36.0440826,26.5072632 36.0440826,27.7500916 L36.0440826,31.4998627 C33.9738464,31.5026093 32.2963715,33.1800842 32.2939682,35.2499771 L32.2939682,41.2498855 C32.2963715,43.3201218 33.9738464,44.9975967 36.0440826,45 L37.5440598,45 C39.6139526,44.9975967 41.2914277,43.3201218 41.2941742,41.2498855 L41.2941742,35.2499771 C41.2914277,33.1800842 39.6139526,31.5026093 37.5440598,31.4998627 Z M3.79371639,1.49997709 L33.7939453,1.49997709 C35.0364304,1.49997709 36.0437393,2.50728609 36.0437393,3.75011446 L36.0437393,5.99990845 L1.5439224,5.99990845 L1.5439224,3.75011446 C1.5439224,2.50728609 2.55123141,1.49997709 3.79371639,1.49997709 Z M39.7938538,35.2499771 L37.5440598,35.2499771 L37.5440598,32.9998398 C38.7865448,32.9998398 39.7938538,34.0074921 39.7938538,35.2499771 Z M36.0437393,32.9998398 L36.0437393,35.2499771 L33.7939453,35.2499771 C33.7939453,34.0074921 34.8012543,32.9998398 36.0437393,32.9998398 Z M37.5440598,43.5000229 L36.0437393,43.5000229 C34.8012543,43.5000229 33.7939453,42.4927139 33.7939453,41.2498855 L33.7939453,36.7499542 L39.7938538,36.7499542 L39.7938538,41.2498855 C39.7938538,42.4927139 38.7865448,43.5000229 37.5440598,43.5000229 Z" id="Shape" fill="#828282"></path>
                <g id="link-(1)" transform="translate(11.337891, 12.128906)" fill="#A03EE5" stroke="#A03EE5">
                    <path d="M8.56324305,6.52002783 C8.3854014,6.69920559 8.3854014,6.98656614 8.56324305,7.1657439 C9.29809816,7.90611993 9.29809816,9.10965357 8.56324305,9.85002959 L4.70441487,13.7378489 C3.96955977,14.4782249 2.77500078,14.4782249 2.04014568,13.7378489 L1.4596437,13.1529857 C0.724788597,12.4126096 0.724788597,11.209076 1.4596437,10.4687 L5.31847188,6.58088065 C5.49631353,6.40170289 5.49631353,6.11434233 5.31847188,5.93516457 C5.14063023,5.75598681 4.8554125,5.75598681 4.67757085,5.93516457 L0.818742674,9.82298389 C0.29192874,10.3537558 0,11.0603247 0,11.8108428 C0,12.561361 0.288573238,13.2679299 0.818742674,13.7987017 L1.39924465,14.383565 C1.9428361,14.9312404 2.65755819,15.2050781 3.37228028,15.2050781 C4.08700237,15.2050781 4.80172445,14.9312404 5.3453159,14.383565 L9.20414408,10.4957457 C10.291327,9.40039484 10.291327,7.61537866 9.20414408,6.52002783 C9.02965793,6.34085006 8.7410847,6.34085006 8.56324305,6.52002783 Z" id="Shape"></path>
                    <path d="M15.4441053,1.40625 L14.8634088,0.821439303 C13.7758617,-0.273813101 12.0035627,-0.273813101 10.9160156,0.821439303 L7.05589471,4.70890925 C5.9683476,5.80416166 5.9683476,7.58901743 7.05589471,8.68426983 C7.23379593,8.86343149 7.51910922,8.86343149 7.69701044,8.68426983 C7.87491167,8.50510817 7.87491167,8.21777344 7.69701044,8.03861178 C6.96190916,7.29830228 6.96190916,6.0948768 7.69701044,5.35456731 L11.5571314,1.46709736 C12.2922326,0.726787861 13.4871918,0.726787861 14.2222931,1.46709736 L14.8029896,2.05190805 C15.5380908,2.79221755 15.5380908,3.99564303 14.8029896,4.73595252 L10.9428686,8.62342248 C10.7649674,8.80258413 10.7649674,9.08991887 10.9428686,9.26908053 C11.0301409,9.35697115 11.1476229,9.40429688 11.2617482,9.40429688 C11.3758735,9.40429688 11.4933554,9.36035156 11.5806277,9.26908053 L15.4407487,5.38161058 C15.9677391,4.85088642 16.2597656,4.14438101 16.2597656,3.39393029 C16.2597656,2.64347957 15.9710957,1.93697416 15.4441053,1.40625 Z" id="Shape"></path>
                </g>
            </g>
        </g>
    </g>
</svg>
